src/svg/ue931-retention.svg

<!-- Generated by IcoMoon.io -->
<svg version="1.1" xmlns="http://www.w3.org/2000/svg" width="32" height="32" viewBox="0 0 32 32">
<path d="M0 9.054h5.573v4.571h-5.573v-4.571z"></path>
<path d="M9.168 9.054h5.653v4.571h-5.653v-4.571z"></path>
<path d="M18.382 9.054h5.643v4.571h-5.643v-4.571z"></path>
<path d="M0 18.197h5.573v4.571h-5.573v-4.571z"></path>
<path d="M9.168 18.197h5.653v4.571h-5.653v-4.571z"></path>
<path d="M18.382 18.197h5.643v4.571h-5.643v-4.571z"></path>
<path d="M0 27.429h5.573v4.571h-5.573v-4.571z"></path>
<path d="M9.168 27.429h5.653v4.571h-5.653v-4.571z"></path>
<path d="M27.287 9.054h4.713v4.571h-4.713v-4.571z"></path>
<path d="M0 0.009h32v4.571h-32v-4.571z"></path>
</svg>

<svg xmlns="http://www.w3.org/2000/svg" width="32" height="32"><path d="M0 9.054h5.573v4.571H0V9.054zm9.168 0h5.653v4.571H9.168V9.054zm9.214 0h5.643v4.571h-5.643V9.054zM0 18.197h5.573v4.571H0v-4.571zm9.168 0h5.653v4.571H9.168v-4.571zm9.214 0h5.643v4.571h-5.643v-4.571zM0 27.429h5.573V32H0v-4.571zm9.168 0h5.653V32H9.168v-4.571zM27.287 9.054H32v4.571h-4.713V9.054zM0 .009h32V4.58H0V.009z"/></svg>
